Avidclan_Website/assets/images/blogger.svg

<?xml version="1.0"?>
<svg xmlns="http://www.w3.org/2000/svg" xmlns:xlink="http://www.w3.org/1999/xlink" xmlns:svgjs="http://svgjs.com/svgjs" version="1.1" width="512" height="512" x="0" y="0" viewBox="0 0 512 512" style="enable-background:new 0 0 512 512" xml:space="preserve" class=""><g><g xmlns="http://www.w3.org/2000/svg"><path d="m125.07 250.533c3.777-2.021 6.124-5.939 6.124-10.223v-9.416h6.6c17.682 0 32.067-14.385 32.067-32.067v-60.113c0-17.682-14.386-32.067-32.067-32.067h-105.727c-17.681-.001-32.067 14.385-32.067 32.066v60.113c0 17.682 14.386 32.067 32.067 32.067h64.488l15.063 17.687c3.24 3.715 9.247 4.203 13.452 1.953zm-28.422-34.639h-64.581c-9.411 0-17.067-7.656-17.067-17.067v-60.113c0-9.411 7.656-17.067 17.067-17.067h105.727c9.411 0 17.067 7.656 17.067 17.067v60.113c0 9.411-7.656 17.067-17.067 17.067h-10.005c-6.394 0-11.595 5.201-11.595 11.594v3.33l-9.294-10.913c-2.418-2.772-6.686-3.999-10.252-4.011zm413.8 221.707-31.36-132.39c-5.238-22.109-22.904-39.555-45.011-44.445l-72.641-16.04c-4.46-.984-7.696-5.041-7.696-9.646v-12.102c24.032-14.741 40.109-41.335 40.109-71.633v-5.141c14.526.647 27.268-10.552 27.268-25.571 0-14.82-12.573-26.333-27.268-25.479v-57.654c0-20.678-16.822-37.5-37.5-37.5h-91.968c-20.678 0-37.5 16.822-37.5 37.5v57.654c-14.654-.731-27.268 10.615-27.268 25.57 0 14.536 12.573 26.534 27.268 25.48v5.141c0 30.298 16.077 56.892 40.108 71.633v12.102c0 4.605-3.236 8.662-7.697 9.646l-72.644 16.041c-22.098 4.888-39.76 22.333-44.997 44.443l-31.37 132.39c-.758 3.023-1.552 6.046-1.552 9.279 0 12.238 7.847 22.86 19.531 26.434l41.795 12.75v8.436c0 9.649 7.309 17.5 16.292 17.5h248.034c8.983 0 16.292-7.851 16.292-17.5v-8.437l41.799-12.751c11.681-3.571 19.528-14.186 19.528-26.411 0-3.096-.882-6.287-1.552-9.299zm-116.598-327.447c6.342-.784 12.268 3.971 12.268 10.57 0 6.416-5.91 11.308-12.268 10.48zm-166.968 21.051c-6.379.799-12.268-3.976-12.268-10.571 0-6.471 5.967-11.269 12.268-10.479zm15 20.14v-41.453c12.957-.738 25.672-2.946 37.892-6.585 3.97-1.182 6.229-5.359 5.048-9.329-1.182-3.969-5.355-6.228-9.329-5.047-10.834 3.226-22.111 5.193-33.61 5.912v-57.343c0-12.407 10.094-22.5 22.5-22.5h91.968c12.406 0 22.5 10.093 22.5 22.5v54.429c-5.636-2.529-10.921-5.763-15.78-9.693-6.94-5.614-12.733-12.406-17.22-20.189-1.646-2.854-4.45-4.799-7.695-5.337-3.239-.538-6.515.396-8.985 2.562-7.185 6.295-14.985 11.875-23.184 16.586-3.592 2.063-4.83 6.648-2.767 10.239 2.063 3.592 6.648 4.83 10.239 2.767 7.678-4.412 15.036-9.511 21.93-15.194 5 7.675 11.123 14.464 18.249 20.229 7.606 6.152 16.067 10.918 25.213 14.208v43.239c0 37.974-30.722 68.869-68.484 68.869-37.763-.001-68.485-30.896-68.485-68.87zm107.839 104.339c-10.655 9.888-24.543 15.407-39.356 15.407s-28.701-5.519-39.356-15.407c6.665-4.537 10.981-12.202 10.981-20.603v-4.862c8.863 3.228 18.417 4.995 28.375 4.995s19.512-1.767 28.375-4.995v4.861c0 8.402 4.316 16.066 10.981 20.604zm-174.645 216.228-42.432-12.944c-5.248-1.605-8.913-6.576-8.913-12.088 0-8 7.677-14.212 15.443-12.289l30.883 7.437v6.03c0 8.183 2.911 15.699 7.752 21.567-.987.657-1.9 1.428-2.733 2.287zm260.599 22.588c0 1.556-.897 2.5-1.292 2.5h-248.034c-.395 0-1.292-.944-1.292-2.5v-10c0-1.556.897-2.5 1.292-2.5h248.034c.395 0 1.292.944 1.292 2.5zm-258.118-119.674c4.143 0 7.5-3.358 7.5-7.5v-38.691c0-10.445 8.497-18.942 18.941-18.942h212.734c10.445 0 18.942 8.497 18.942 18.942v119.423c0 10.444-8.497 18.942-18.942 18.942h-212.734c-10.444 0-18.941-8.498-18.941-18.942v-45.732c0-4.142-3.357-7.5-7.5-7.5s-7.5 3.358-7.5 7.5v24.273l-27.364-6.589c-4.284-1.036-8.655-1.021-12.823-.018l26.378-111.323c3.92-16.548 17.125-29.602 33.639-33.255l65.401-14.442c13.92 16.021 33.73 25.119 55.078 25.119s41.157-9.098 55.078-25.119l65.397 14.44c16.522 3.655 29.731 16.709 33.652 33.256l26.37 111.323c-4.166-1.002-8.536-1.017-12.818.017l-27.369 6.59v-97.964c0-18.716-15.227-33.942-33.942-33.942h-212.736c-18.716 0-33.941 15.226-33.941 33.942v38.691c0 4.143 3.357 7.501 7.5 7.501zm310.535 84.14-42.436 12.946c-.833-.859-1.746-1.63-2.733-2.287 4.841-5.868 7.752-13.384 7.752-21.567v-6.031l30.887-7.438c7.7-1.917 15.438 4.286 15.438 12.31 0 5.501-3.665 10.464-8.908 12.067zm-442.175-297.696h78.027c4.143 0 7.5-3.358 7.5-7.5s-3.357-7.5-7.5-7.5h-78.027c-4.143 0-7.5 3.358-7.5 7.5s3.357 7.5 7.5 7.5zm85.527 22.5c0-4.142-3.357-7.5-7.5-7.5h-78.027c-4.143 0-7.5 3.358-7.5 7.5s3.357 7.5 7.5 7.5h78.027c4.143 0 7.5-3.358 7.5-7.5zm197.206 13.035c3.627-2 4.946-6.561 2.947-10.188-2-3.627-6.561-4.947-10.189-2.947-2.37 1.307-6.195 2.849-11.043 2.849-.079 0-.159 0-.239-.001-4.75-.05-8.497-1.577-10.804-2.848-3.628-2.001-8.189-.68-10.189 2.947-1.999 3.627-.68 8.189 2.947 10.189 5.588 3.082 11.921 4.713 18.286 4.713 8.031-.001 14.363-2.553 18.284-4.714zm-18.285 231.251c19.891 0 36.073-16.247 36.073-36.218s-16.183-36.218-36.073-36.218-36.073 16.247-36.073 36.218 16.183 36.218 36.073 36.218zm0-57.436c11.62 0 21.073 9.518 21.073 21.218s-9.453 21.218-21.073 21.218-21.073-9.518-21.073-21.218 9.453-21.218 21.073-21.218zm-36.66-253.267c-4.143 0-7.5 3.358-7.5 7.5v14.738c0 4.142 3.357 7.5 7.5 7.5s7.5-3.358 7.5-7.5v-14.738c0-4.143-3.357-7.5-7.5-7.5zm73.321 29.738c4.143 0 7.5-3.358 7.5-7.5v-14.738c0-4.142-3.357-7.5-7.5-7.5s-7.5 3.358-7.5 7.5v14.738c0 4.142 3.358 7.5 7.5 7.5z" fill="#007bfc" data-original="#000000" style="" class=""/></g></g></svg>

<svg width="512" height="512" viewBox="0 0 512 512" fill="none" xmlns="http://www.w3.org/2000/svg">
<g clip-path="url(#clip0_496_1236)">
<path d="M125.07 250.533C128.847 248.512 131.194 244.594 131.194 240.31V230.894H137.794C155.476 230.894 169.861 216.509 169.861 198.827V138.714C169.861 121.032 155.475 106.647 137.794 106.647H32.067C14.386 106.646 0 121.032 0 138.713V198.826C0 216.508 14.386 230.893 32.067 230.893H96.555L111.618 248.58C114.858 252.295 120.865 252.783 125.07 250.533ZM96.648 215.894H32.067C22.656 215.894 15 208.238 15 198.827V138.714C15 129.303 22.656 121.647 32.067 121.647H137.794C147.205 121.647 154.861 129.303 154.861 138.714V198.827C154.861 208.238 147.205 215.894 137.794 215.894H127.789C121.395 215.894 116.194 221.095 116.194 227.488V230.818L106.9 219.905C104.482 217.133 100.214 215.906 96.648 215.894ZM510.448 437.601L479.088 305.211C473.85 283.102 456.184 265.656 434.077 260.766L361.436 244.726C356.976 243.742 353.74 239.685 353.74 235.08V222.978C377.772 208.237 393.849 181.643 393.849 151.345V146.204C408.375 146.851 421.117 135.652 421.117 120.633C421.117 105.813 408.544 94.3 393.849 95.154V37.5C393.849 16.822 377.027 0 356.349 0H264.381C243.703 0 226.881 16.822 226.881 37.5V95.154C212.227 94.423 199.613 105.769 199.613 120.724C199.613 135.26 212.186 147.258 226.881 146.204V151.345C226.881 181.643 242.958 208.237 266.989 222.978V235.08C266.989 239.685 263.753 243.742 259.292 244.726L186.648 260.767C164.55 265.655 146.888 283.1 141.651 305.21L110.281 437.6C109.523 440.623 108.729 443.646 108.729 446.879C108.729 459.117 116.576 469.739 128.26 473.313L170.055 486.063V494.499C170.055 504.148 177.364 511.999 186.347 511.999H434.381C443.364 511.999 450.673 504.148 450.673 494.499V486.062L492.472 473.311C504.153 469.74 512 459.125 512 446.9C512 443.804 511.118 440.613 510.448 437.601ZM393.85 110.154C400.192 109.37 406.118 114.125 406.118 120.724C406.118 127.14 400.208 132.032 393.85 131.204V110.154ZM226.882 131.205C220.503 132.004 214.614 127.229 214.614 120.634C214.614 114.163 220.581 109.365 226.882 110.155V131.205ZM241.882 151.345V109.892C254.839 109.154 267.554 106.946 279.774 103.307C283.744 102.125 286.003 97.948 284.822 93.978C283.64 90.009 279.467 87.75 275.493 88.931C264.659 92.157 253.382 94.124 241.883 94.843V37.5C241.883 25.093 251.977 15 264.383 15H356.351C368.757 15 378.851 25.093 378.851 37.5V91.929C373.215 89.4 367.93 86.166 363.071 82.236C356.131 76.622 350.338 69.83 345.851 62.047C344.205 59.193 341.401 57.248 338.156 56.71C334.917 56.172 331.641 57.106 329.171 59.272C321.986 65.567 314.186 71.147 305.987 75.858C302.395 77.921 301.157 82.506 303.22 86.097C305.283 89.689 309.868 90.927 313.459 88.864C321.137 84.452 328.495 79.353 335.389 73.67C340.389 81.345 346.512 88.134 353.638 93.899C361.244 100.051 369.705 104.817 378.851 108.107V151.346C378.851 189.32 348.129 220.215 310.367 220.215C272.604 220.214 241.882 189.319 241.882 151.345ZM349.721 255.684C339.066 265.572 325.178 271.091 310.365 271.091C295.552 271.091 281.664 265.572 271.009 255.684C277.674 251.147 281.99 243.482 281.99 235.081V230.219C290.853 233.447 300.407 235.214 310.365 235.214C320.323 235.214 329.877 233.447 338.74 230.219V235.08C338.74 243.482 343.056 251.146 349.721 255.684ZM175.076 471.912L132.644 458.968C127.396 457.363 123.731 452.392 123.731 446.88C123.731 438.88 131.408 432.668 139.174 434.591L170.057 442.028V448.058C170.057 456.241 172.968 463.757 177.809 469.625C176.822 470.282 175.909 471.053 175.076 471.912ZM435.675 494.5C435.675 496.056 434.778 497 434.383 497H186.349C185.954 497 185.057 496.056 185.057 494.5V484.5C185.057 482.944 185.954 482 186.349 482H434.383C434.778 482 435.675 482.944 435.675 484.5V494.5ZM177.557 374.826C181.7 374.826 185.057 371.468 185.057 367.326V328.635C185.057 318.19 193.554 309.693 203.998 309.693H416.732C427.177 309.693 435.674 318.19 435.674 328.635V448.058C435.674 458.502 427.177 467 416.732 467H203.998C193.554 467 185.057 458.502 185.057 448.058V402.326C185.057 398.184 181.7 394.826 177.557 394.826C173.414 394.826 170.057 398.184 170.057 402.326V426.599L142.693 420.01C138.409 418.974 134.038 418.989 129.87 419.992L156.248 308.669C160.168 292.121 173.373 279.067 189.887 275.414L255.288 260.972C269.208 276.993 289.018 286.091 310.366 286.091C331.714 286.091 351.523 276.993 365.444 260.972L430.841 275.412C447.363 279.067 460.572 292.121 464.493 308.668L490.863 419.991C486.697 418.989 482.327 418.974 478.045 420.008L450.676 426.598V328.634C450.676 309.918 435.449 294.692 416.734 294.692H203.998C185.282 294.692 170.057 309.918 170.057 328.634V367.325C170.057 371.468 173.414 374.826 177.557 374.826ZM488.092 458.966L445.656 471.912C444.823 471.053 443.91 470.282 442.923 469.625C447.764 463.757 450.675 456.241 450.675 448.058V442.027L481.562 434.589C489.262 432.672 497 438.875 497 446.899C497 452.4 493.335 457.363 488.092 458.966ZM45.917 161.27H123.944C128.087 161.27 131.444 157.912 131.444 153.77C131.444 149.628 128.087 146.27 123.944 146.27H45.917C41.774 146.27 38.417 149.628 38.417 153.77C38.417 157.912 41.774 161.27 45.917 161.27ZM131.444 183.77C131.444 179.628 128.087 176.27 123.944 176.27H45.917C41.774 176.27 38.417 179.628 38.417 183.77C38.417 187.912 41.774 191.27 45.917 191.27H123.944C128.087 191.27 131.444 187.912 131.444 183.77ZM328.65 196.805C332.277 194.805 333.596 190.244 331.597 186.617C329.597 182.99 325.036 181.67 321.408 183.67C319.038 184.977 315.213 186.519 310.365 186.519C310.286 186.519 310.206 186.519 310.126 186.518C305.376 186.468 301.629 184.941 299.322 183.67C295.694 181.669 291.133 182.99 289.133 186.617C287.134 190.244 288.453 194.806 292.08 196.806C297.668 199.888 304.001 201.519 310.366 201.519C318.397 201.518 324.729 198.966 328.65 196.805ZM310.365 428.056C330.256 428.056 346.438 411.809 346.438 391.838C346.438 371.867 330.255 355.62 310.365 355.62C290.475 355.62 274.292 371.867 274.292 391.838C274.292 411.809 290.475 428.056 310.365 428.056ZM310.365 370.62C321.985 370.62 331.438 380.138 331.438 391.838C331.438 403.538 321.985 413.056 310.365 413.056C298.745 413.056 289.292 403.538 289.292 391.838C289.292 380.138 298.745 370.62 310.365 370.62ZM273.705 117.353C269.562 117.353 266.205 120.711 266.205 124.853V139.591C266.205 143.733 269.562 147.091 273.705 147.091C277.848 147.091 281.205 143.733 281.205 139.591V124.853C281.205 120.71 277.848 117.353 273.705 117.353ZM347.026 147.091C351.169 147.091 354.526 143.733 354.526 139.591V124.853C354.526 120.711 351.169 117.353 347.026 117.353C342.883 117.353 339.526 120.711 339.526 124.853V139.591C339.526 143.733 342.884 147.091 347.026 147.091Z" fill="#0E53BE"/>
</g>
<defs>
<clipPath id="clip0_496_1236">
<rect width="512" height="512" fill="white"/>
</clipPath>
</defs>
</svg>
